X:1
T:The Orange Maid of Sligo
M:4/4
L:1/4
K:G
 D/2| G3/2 G/2 G B3/4 c/4| d B G d| c B A3/2 G/2| F A D3/2| D/2| E G cB/2-c/2|\
 d B G d| c3/2 A/2 F3/2 D/2| D- G G3/2||
